X:1601
T:Doublings from Low A
C: Kevin Fraser
B: https://bagpipes.ksfraser.com
O: Kevin Fraser
Z:Kevin Fraser
Q:1/4=86
M:2/4
L:1/4
R:March
V:1 gstem=up stem=down
I:MIDI=program 110
K:HP
%%MIDI gracedivider 4
%%MIDI gchord
%%MIDI beatstring 
%%landscape
|| A{gGd}G   | A{gAd}A   | A{gBd}B | A{gcd}c |
w: en himdem | en hindim | en hoto | en hodo |
   A{gde}d   | A{gef}e   | A{gfg}f | g  a | 
w: en hada   | en chehe   | en hete | di I |
 a g   |   A{gfg}f | A{gef}e   | A{gde}d   | 
w:I di | en hete | en chehe   | en hada   | 
  A{gcd}c |A{gBd}B | A{gAd}A  | A{gGd}G   ||
w:en hodo |en hoto |en hindim | en himdem ||
W:You need to be able to play this exercise for SQCF Level 2 
W: We can't play (G) doublings on High G nor High A as we can't play G gracenotes on those notes.


